Flat-Remix-Dark/apps/scalable/gnome-nettool.svg

<svg xmlns="http://www.w3.org/2000/svg" width="384pt" height="384pt" version="1.1" viewBox="0 0 384 384"> <g> <path style="fill-rule:evenodd;fill:rgb(9.803%,9.803%,9.803%);stroke-width:19.392349;stroke-linejoin:round;stroke:rgb(100.000%,100.000%,100.000%)" d="M 51.157013 79.670929 L 461.853424 79.670929 C 472.874908 79.670929 481.80899 88.605011 481.80899 99.626495 L 481.80899 413.378723 C 481.80899 424.400208 472.874908 433.339508 461.853424 433.339508 L 51.157013 433.339508 C 40.135529 433.339508 31.201447 424.400208 31.201447 413.378723 L 31.201447 99.626495 C 31.201447 88.605011 40.135529 79.670929 51.157013 79.670929 Z M 51.157013 79.670929" transform="matrix(0.748538,0,0,0.748538,0,0)"/> <path style="fill:rgb(100.000%,100.000%,100.000%)" d="M 192.320312 90.929688 C 137.121094 90.929688 92.214844 135.839844 92.214844 191.039062 C 92.214844 246.238281 137.121094 291.148438 192.320312 291.148438 C 247.519531 291.148438 292.429688 246.238281 292.429688 191.039062 C 292.429688 135.839844 247.519531 90.929688 192.320312 90.929688 Z M 243.160156 136.902344 C 230.371094 124.3125 213.949219 116.300781 193.535156 115.523438 L 193.535156 95.070312 C 219.777344 95.59375 241.289062 105.65625 258.089844 121.761719 Z M 193.535156 144.101562 C 205.6875 144.59375 215.328125 149.171875 223.226562 156.417969 L 193.535156 186.105469 Z M 189.164062 189.824219 L 145.382812 189.824219 C 146.429688 165.527344 166.808594 145.144531 189.164062 144.101562 Z M 189.164062 194.199219 L 189.164062 237.976562 C 166.808594 236.929688 146.429688 216.550781 145.382812 194.199219 Z M 193.535156 194.199219 L 239.257812 194.199219 C 238.214844 216.550781 217.835938 236.929688 193.535156 237.976562 Z M 226.527344 153.53125 C 217.886719 145.546875 207.628906 140.511719 193.535156 140.015625 L 193.535156 119.609375 C 211.515625 120.386719 228.015625 127.941406 240.0625 139.789062 Z M 189.164062 140.015625 C 164.863281 141.066406 142.347656 163.582031 141.296875 189.824219 L 120.839844 189.824219 C 121.386719 151.433594 152.714844 120.105469 189.164062 119.558594 Z M 141.296875 194.199219 C 142.347656 218.496094 164.863281 241.011719 189.164062 242.0625 L 189.164062 260.476562 C 152.714844 259.9375 122.492188 230.644531 120.894531 194.199219 Z M 193.535156 242.0625 C 219.777344 241.011719 242.292969 218.496094 243.34375 194.199219 L 261.707031 194.199219 C 260.136719 228.699219 229.984375 258.855469 193.535156 260.421875 Z M 189.164062 95.070312 L 189.164062 115.472656 C 150.285156 116.019531 117.300781 149.003906 116.753906 189.824219 L 96.351562 189.824219 C 97.433594 136.855469 138.136719 96.148438 189.164062 95.070312 Z M 96.351562 194.199219 L 116.808594 194.199219 C 118.410156 233.074219 150.285156 264.023438 189.164062 264.5625 L 189.164062 287.007812 C 138.136719 285.925781 97.433594 245.222656 96.351562 194.199219 Z M 193.535156 287.007812 L 193.535156 264.507812 C 231.925781 262.933594 264.21875 230.644531 265.792969 194.195312 L 288.292969 194.195312 C 287.210938 245.222656 246.507812 285.925781 193.535156 287.007812 Z M 193.535156 287.007812"/> </g> </svg>

<svg width="512" height="512" version="1.1" viewBox="0 0 384 384" xmlns="http://www.w3.org/2000/svg"><g transform="translate(-.0025 -1.5902)"><g fill-rule="evenodd"><path d="m37.949 51.509c-12.198 0-22.246 9.9277-22.246 21.989v232.71c0 12.061 10.046 21.994 22.246 21.994h308.11c12.2 0 22.243-9.9338 22.243-21.994v-232.71c0-12.059-10.044-21.989-22.243-21.989zm0 14.383h308.11c4.3378 0 7.6936 3.3178 7.6936 7.6061v232.71c0 4.2884-3.3582 7.6119-7.6936 7.6119h-308.11c-4.3355 0-7.6994-3.3261-7.6994-7.6119v-232.71c0-4.2862 3.3621-7.6061 7.6994-7.6061z" color="#000000" color-rendering="auto" dominant-baseline="auto" fill="#fff" image-rendering="auto" opacity=".2" shape-rendering="auto" solid-color="#000000" stroke="#000" stroke-linejoin="round" stroke-width="7.4593" style="font-feature-settings:normal;font-variant-alternates:normal;font-variant-caps:normal;font-variant-ligatures:normal;font-variant-numeric:normal;font-variant-position:normal;isolation:auto;mix-blend-mode:normal;shape-padding:0;text-decoration-color:#000000;text-decoration-line:none;text-decoration-style:solid;text-indent:0;text-orientation:mixed;text-transform:none;white-space:normal"/><path d="m37.989 59.603c-12.195 0-22.24 10.041-22.24 22.238v235.32c0 12.197 10.043 22.24 22.24 22.24h308.02c12.197 0 22.238-10.045 22.238-22.24v-235.32c0-12.195-10.043-22.238-22.238-22.238z" opacity=".3"/><path transform="matrix(.75 0 0 .75 0 336)" d="m50.656-368.83h410.7c11.021 0 19.953 8.9323 19.953 19.953v313.76c0 11.021-8.9323 19.958-19.953 19.958h-410.7c-11.021 0-19.958-8.9375-19.958-19.958v-313.76c0-11.021 8.9375-19.953 19.958-19.953z" fill="#171717" stroke="#fff" stroke-linejoin="round" stroke-width="19.392"/></g></g><path d="m192.32 90.93c-55.199 0-100.11 44.91-100.11 100.11 0 55.199 44.906 100.11 100.11 100.11 55.199 0 100.11-44.91 100.11-100.11 0-55.199-44.91-100.11-100.11-100.11zm50.84 45.973c-12.789-12.59-29.211-20.602-49.625-21.379v-20.453c26.242 0.52344 47.754 10.586 64.555 26.691zm-49.625 7.1992c12.152 0.49219 21.793 5.0703 29.691 12.316l-29.691 29.688zm-4.3711 45.723h-43.781c1.0469-24.297 21.426-44.68 43.781-45.723zm0 4.375v43.777c-22.355-1.0469-42.734-21.426-43.781-43.777zm4.3711 0h45.723c-1.043 22.352-21.422 42.73-45.723 43.777zm32.992-40.668c-8.6406-7.9844-18.898-13.02-32.992-13.516v-20.406c17.98 0.77734 34.48 8.332 46.527 20.18zm-37.363-13.516c-24.301 1.0508-46.816 23.566-47.867 49.809h-20.457c0.54688-38.391 31.875-69.719 68.324-70.266zm-47.867 54.184c1.0508 24.297 23.566 46.812 47.867 47.863v18.414c-36.449-0.53906-66.672-29.832-68.27-66.277zm52.238 47.863c26.242-1.0508 48.758-23.566 49.809-47.863h18.363c-1.5703 34.5-31.723 64.656-68.172 66.223zm-4.3711-146.99v20.402c-38.879 0.54688-71.863 33.531-72.41 74.352h-20.402c1.082-52.969 41.785-93.676 92.812-94.754zm-92.812 99.129h20.457c1.6016 38.875 33.477 69.824 72.355 70.363v22.445c-51.027-1.082-91.73-41.785-92.812-92.809zm97.184 92.809v-22.5c38.391-1.5742 70.684-33.863 72.258-70.312h22.5c-1.082 51.027-41.785 91.73-94.758 92.812z" fill="#fff"/></svg>
